X: 509
T:The Black Haired Girl
M:2/4
L:1/8
B:O'Neill's 509
N:"Moderate" "collected by F. O'Neill"
Z:Transcribed by Dave Wooldridge
K:G
D \
|G2 GE|G2 AB|c2 d/2c/2B/2A/2|c/2B/2A/2G/2 E/2 z/2 z|
|G2 GE|G2 AB|c2 d/2c/2B/2A/2|B2 B :|
||A \
|GA .B.c|dd ef|gf a/2g/2f/2e/2|dB e/2d/2c/2B/2|
|cA d/2c/2B/2A/2|G/2D/2E/2F/2 ~GG/2B/2|BA/2G/2A/2B/2 .G .G|G2 HG|]
